images/email.svg

<svg width="16" height="21" viewBox="0 0 16 21" fill="none" xmlns="http://www.w3.org/2000/svg">
<path d="M5.71429 15.75C5.0831 15.75 4.57143 16.2201 4.57143 16.8C4.57143 17.3799 5.0831 17.85 5.71429 17.85H10.2857C10.9169 17.85 11.4286 17.3799 11.4286 16.8C11.4286 16.2201 10.9169 15.75 10.2857 15.75H5.71429Z" fill="#0086FF"/>
<path fill-rule="evenodd" clip-rule="evenodd" d="M13.7143 0H2.28571C1.02335 0 0 0.940203 0 2.1V18.9C0 20.0598 1.02335 21 2.28571 21H13.7143C14.9767 21 16 20.0598 16 18.9V2.1C16 0.940202 14.9767 0 13.7143 0ZM13.7143 2.1H11.4286C11.4286 3.2598 10.4052 4.2 9.14286 4.2H6.85714C5.59478 4.2 4.57143 3.2598 4.57143 2.1H2.28571L2.28571 18.9H13.7143V2.1Z" fill="#0086FF"/>
</svg>

<svg width="16" height="21" fill="none" xmlns="http://www.w3.org/2000/svg"><path d="M5.714 15.75c-.63 0-1.143.47-1.143 1.05 0 .58.512 1.05 1.143 1.05h4.572c.63 0 1.143-.47 1.143-1.05 0-.58-.512-1.05-1.143-1.05H5.714Z" fill="#0086FF"/><path fill-rule="evenodd" clip-rule="evenodd" d="M13.714 0H2.286C1.023 0 0 .94 0 2.1v16.8C0 20.06 1.023 21 2.286 21h11.428C14.977 21 16 20.06 16 18.9V2.1C16 .94 14.977 0 13.714 0Zm0 2.1H11.43c0 1.16-1.024 2.1-2.286 2.1H6.857c-1.262 0-2.286-.94-2.286-2.1H2.286v16.8h11.428V2.1Z" fill="#0086FF"/></svg>
